X:1
T:Read House Rant
T:Reed House Rant
S:Henry Atkinson music manuscript collection (1694-95, Northumberland)
M:6/4
L:1/8
R:Jig
F: http://www.farnearchive.com/show_images.asp?id=R0113701&image=1
Z:AK/Fiddler's Companion
K:D
B3A G2|F3E D2 f3e d2|e2(E2E2)B3 A G2|F3E D2 f3e c2|d2 (D2D2)||
B3A G2|F3G A2 F3E D2|C2 [C2E2]-[C2E2] B3AG2|F3G A2 G3ED2|A,2(D2D2)||
B3 A2G2|(FA3)G2 B3A B2|_c2(E2E2) B3A G2|(F2A2)(G2B2) A2(B2c2)|d2(D2D2)||
B3A G2|A2(D2D2) B3AG2|_c2(E2E2) B3A G2|A2F2B2 G3c (Bc)|d2(D2D2)||
B3A G2|F3E D2 b2a2f2|e2(E2E2) B3A G2|F3E D2 f3e (dc)|d2(D2D2)||

